usr/share/icons/big-icons/symbolic/actions/send_signal.svg

<svg xmlns="http://www.w3.org/2000/svg" viewBox="0 0 16 16">
<defs id="defs3051">
<style id="current-color-scheme" type="text/css">
.ColorScheme-Text{color:#fcfcfc}
</style>
</defs>
<path d="M7 2v1h6v10H7v1h7V2zM2 6v1h5V6zm1 2v1h4V8zm2 2v1h2v-1z" class="ColorScheme-Text" style="fill:currentColor;fill-opacity:1;stroke:none"/>
</svg>

<svg xmlns="http://www.w3.org/2000/svg" viewBox="0 0 16 16">
  <defs id="defs3051">
    <style type="text/css" id="current-color-scheme">
      .ColorScheme-Text {
        color:#eff0f1;
      }
      </style>
  </defs>
 <path style="fill:currentColor;fill-opacity:1;stroke:none" 
     d="M 7 2 L 7 3 L 13 3 L 13 13 L 7 13 L 7 14 L 13 14 L 14 14 L 14 3 L 14 2 L 7 2 z M 2 6 L 2 7 L 7 7 L 7 6 L 2 6 z M 3 8 L 3 9 L 7 9 L 7 8 L 3 8 z M 5 10 L 5 11 L 7 11 L 7 10 L 5 10 z "
     class="ColorScheme-Text"
     />
</svg>
